src/24/panel/riot-tray.svg

<svg xmlns="http://www.w3.org/2000/svg" width="24" height="24" version="1.1">
 <defs>
  <style id="current-color-scheme" type="text/css">
   .ColorScheme-Text { color:#dfdfdf; } .ColorScheme-Highlight { color:#5294e2; }
  </style>
 </defs>
 <path style="fill:currentColor" class="ColorScheme-Text" d="m 7.999969,4.0000226 a 2,2 0 0 0 -2,2 2,2 0 0 0 2,2 2,2 0 0 0 2,-2 2,2 0 0 0 -2,-2 z m 2.212891,0 c 0.483,0.53335 0.787109,1.2314 0.787109,2 0,1.6449999 -1.3550001,3 -3.0000001,3 -0.7686,0 -1.4667,-0.3041094 -2,-0.7871094 v 9.7871098 c 0,1.116 0.8843,2 2,2 1.1157001,0 2.0000001,-0.884 2.0000001,-2 v -3 h 0.408203 L 9.6386409,13.84182 9.6308409,13.8301 c -0.2881,-0.448 -0.6300601,-1.048125 -0.63086,-1.828125 v -0.002 c 0,-1.645 1.3550001,-3.0000005 3.0000001,-3.0000005 h 0.002 c 0.963,0.0012 1.868841,0.4663471 2.431641,1.2480475 l 0.01953,0.0293 2.009766,3.015625 c 0.947004,-0.9872 1.537113,-2.320769 1.537113,-3.7929694 0,-3.0376002 -2.5,-5.5000001 -5.5,-5.5000001 z m 1.787109,6.0000004 c -1.1046,0 -2,0.8954 -2,2 5e-4,0.472 0.218956,0.894563 0.472656,1.289063 l 3.845703,5.794921 c 0.374,0.569 1.001641,0.916016 1.681641,0.916016 1.1046,0 2,-0.89543 2,-2 -9.42e-4,-0.41214 -0.129187,-0.813911 -0.367188,-1.150391 l -4.011718,-6.017578 c -0.3753,-0.5217 -0.978394,-0.831231 -1.621094,-0.832031 z"/>
</svg>

<svg xmlns="http://www.w3.org/2000/svg" width="24" height="24"><defs><style id="current-color-scheme" type="text/css"></style></defs><path d="M8 4a2 2 0 0 0-2 2 2 2 0 0 0 2 2 2 2 0 0 0 2-2 2 2 0 0 0-2-2zm2.213 0c.483.533.787 1.231.787 2 0 1.645-1.355 3-3 3a2.975 2.975 0 0 1-2-.787V18c0 1.116.884 2 2 2s2-.884 2-2v-3h.408l-.77-1.158-.007-.012C9.343 13.382 9 12.782 9 12.002V12c0-1.645 1.355-3 3-3h.002a3.003 3.003 0 0 1 2.432 1.248l.02.03 2.009 3.015A5.465 5.465 0 0 0 18 9.5C18 6.462 15.5 4 12.5 4zM12 10a2 2 0 0 0-2 2c0 .472.219.895.473 1.29l3.845 5.794A2 2 0 0 0 18 18a2 2 0 0 0-.367-1.15l-4.012-6.018A2 2 0 0 0 12 10z" fill="currentColor" color="#dfdfdf"/></svg>
